X:437
T:A Long Way From Home
T:Trip to Kinvara, The
C:Martin Mulhaire
R:reel
S:Session Galway 1992
D:Buttons & Bows
Z:id:hn-reel-437
M:C|
K:D
~f3e dcdB|AFDF A2FA|~f3e dfbf|af~f2 edBc|
dB~B2 BAFE|DEFA BAFA|ba~a2 fdBc|1 dfec d3e:|2 dfec dABc||
|:d2fd adfa|bagb afef|d2fd adfd|Acec fcec|
d2fd adfa|bagb ~a3f|1 ~g3e f2af|gfed cABc:|2 ~g3e ~f3a|gfed cAce||
